X: 12913
T: Fiddle Cushion, The
R: reel
M: 4/4
K: Gmajor
G3E DB,G,B,|C2 CD EGGF|G2 GE DB,G,B,|A,2A,B, DEFD|
G3E DB,G,B,|CB,CD EDEF|GDEG EE3|A,B,CD B,G,G,2:|
G3A BddB|cBcd eg g2|edBA B2Bc|dBAG FADF|
G2BG DGBd|cBcd efgf|gfgd BcdB|ABcd BGGD:|
Ecc2 c2ec|d2BG DGBd|dcAF DFAd|edd^c d2BA|
EccB cdec|BcdB G3D|Ecec dBAG|DcBA G4|
Ecc2 c2ec|d2BG DGBd|dcAF DFAd|edd^c d2dg|
eccB cdef|gfge dBGB|c2ec dBBd|cAAc BGGD||

